**kern	**kern	**dynam
*part1	*part1	*part1
*staff2	*staff1	*
*I"Piano	*	*
*clefG2	*clefG2	*
*k[f#c#]	*k[f#c#]	*
=1	=1	=1
8AL 8d	8f#L 8a 8dd	.
8B 8d	8f# 8b 8dd	.
8AJ 8d	8f#J 8a 8dd	.
=	=	=
8BL 8d	8f#L 8b 8dd	.
8A 8d	8f# 8a 8dd	.
8BJ 8d	8f#J 8b 8dd	.
=	=	=
8AL 8d	8f#L 8a 8dd	.
8B 8d	16f#L 16b 16dd	.
.	16f#J 16b 16dd	.
8AJ 8d	8f#J 8a 8dd	[
=	=	=
8BL 8d	8f#L 8b 8dd	.
8A 8d	8f# 8a 8dd	.
8BJ 8d	8f#J 8b 8dd	.
=:|!	=:|!	=:|!
!	!LO:TX:b:t=D.C.	!
!	!LO:TX:a:t=	!
8AL 8d	8f#L 8a 8dd	ff
8B 8d	16f#L 16b 16dd	.
.	16f#J 16b 16dd	.
8AJ 8d	8f#J 8a 8dd	.
=	=	=
8BL 8d	16f#LL 16b 16dd	.
.	16f#J 16b 16dd	.
8A 8d	8f# 8a 8dd	.
8BJ 8d	16f#L 16b 16dd	.
.	16f#JJ 16b 16dd	.
=	=	=
4A 4d	4f# 4a 4dd	.
8r	8r	.
=	=	=
4A 4d	4f# 4a 4dd 4ff#	sf
8r	8r	.
*clefF4	*	*
=	=	=
4DD 4D	4F# 4A 4d	sf
8r	8r	.
==	==	==
*-	*-	*-
!!!system-decoration: {(s1,s2)}
